X:37
T:37 Redowa Polka
C:Michael Turner's MS
I:abc2nwc
M:2/4
L:1/16
K:G
GBd2 d2d2|dedc B2B2|GAB2 GAB2|B2A2 A4|
ABc2 c2c2|cdcB A2A2|FGA2 FGA2|A2G2 G4:|
GBd2 g2d2|d2c2 cBc2|FAc2 f2e2|e2d2 d^cd2|
GBd2 g2d2|d2c2 cBc2|FAc2 f2e2|d2ef g4:|
K:C
G2Bc BcBc|A2^cd cdcd|B2G2 A2B2|c2d2 a2g2|
G2Bc BcBc|A2^cd cdcd|B2G2 A2B2|c2c2 c4:|

